; generated by Slic3r 1.2.9 on 2017-07-12 at 10:10:42

; external perimeters extrusion width = 0.40mm
; perimeters extrusion width = 0.48mm
; infill extrusion width = 0.48mm
; solid infill extrusion width = 0.48mm
; top infill extrusion width = 0.48mm

M107
M190 S20 ; set bed temperature
M104 S215 ; set temperature
G28 ; home all axes
G1 Z5 F5000 ; lift nozzle

M109 S215 ; wait for temperature to be reached
G21 ; set units to millimeters
G90 ; use absolute coordinates
M82 ; use absolute distances for extrusion
G92 E0
G1 Z0.400 F7800.000
G1 E-2.00000 F2400.00000
G92 E0
G1 X84.827 Y85.720 F7800.000
G1 E2.00000 F2400.00000
G1 X86.583 Y84.220 E2.27422 F1800.000
G1 X88.743 Y83.405 E2.54845
G1 X90.000 Y83.286 E2.69842
G1 X110.000 Y83.286 E5.07372
G1 X112.275 Y83.683 E5.34794
G1 X114.280 Y84.827 E5.62217 F1800.000
G1 X115.780 Y86.583 E5.89639
G1 X116.595 Y88.743 E6.17062
G1 X116.714 Y90.000 E6.32058
G1 X116.714 Y110.000 E8.69589
G1 X116.317 Y112.275 E8.97011
G1 X115.173 Y114.280 E9.24434
G1 X113.417 Y115.780 E9.51856
G1 X111.257 Y116.595 E9.79279
G1 X110.000 Y116.714 E9.94275
G1 X90.000 Y116.714 E12.31805
G1 X87.725 Y116.317 E12.59228
G1 X85.720 Y115.173 E12.86650
G1 X84.220 Y113.417 E13.14073
G1 X83.405 Y111.257 E13.41495
G1 X83.286 Y110.000 E13.56492
G1 X83.286 Y90.000 E15.94022
G1 X83.683 Y87.725 E16.21445
G1 X84.797 Y85.772 E16.48155
G1 E14.48155 F2400.00000
G92 E0
G1 X108.172 Y108.172 F7800.000
G1 E2.00000 F2400.00000
G1 X91.828 Y108.172 E3.94102 F1800.000
G1 X91.828 Y91.828 E5.88204
G1 X108.172 Y91.828 E7.82306
G1 X108.172 Y108.112 E9.75696
G1 X108.886 Y108.886 F7800.000
G1 X91.114 Y108.886 E11.86761 F1800.000
G1 X91.114 Y91.114 E13.97827
G1 X108.886 Y91.114 E16.08893
G1 X108.886 Y108.826 E18.19246
G1 X109.600 Y109.600 F7800.000
G1 X90.400 Y109.600 E20.47275 F1800.000
G1 X90.400 Y90.400 E22.75304
G1 X109.600 Y90.400 E25.03333
G1 X109.600 Y109.540 E27.30649
G1 X109.254 Y109.400 F7800.000
G1 X107.736 Y92.607 F7800.000
G1 X107.393 Y92.264 E27.36601 F1800.000
G1 X106.350 Y92.264 E27.49403
G1 X107.736 Y93.650 E27.73459
G1 X107.736 Y94.694 E27.86261
G1 X105.306 Y92.264 E28.28423
G1 X104.263 Y92.264 E28.41225
G1 X107.736 Y95.737 E29.01491
G1 X107.736 Y96.780 E29.14293
G1 X103.220 Y92.264 E29.92665
G1 X102.176 Y92.264 E30.05467
G1 X107.736 Y97.824 E31.01943
G1 X107.736 Y98.867 E31.14745
G1 X101.133 Y92.264 E32.29327
G1 X100.089 Y92.264 E32.42129
G1 X107.736 Y99.911 E33.74815
G1 X107.736 Y100.954 E33.87617
G1 X99.046 Y92.264 E35.38408
G1 X98.003 Y92.264 E35.51210
G1 X107.736 Y101.997 E37.20106
G1 X107.736 Y103.041 E37.32909
G1 X96.959 Y92.264 E39.19910
G1 X95.916 Y92.264 E39.32712
G1 X107.736 Y104.084 E41.37818
G1 X107.736 Y105.128 E41.50620
G1 X94.872 Y92.264 E43.73831
G1 X93.829 Y92.264 E43.86633
G1 X107.736 Y106.171 E46.27949
G1 X107.736 Y107.214 E46.40751
G1 X92.786 Y92.264 E49.00172
G1 X92.264 Y92.786 E49.09224
G1 X107.214 Y107.736 E51.68645
G1 X106.171 Y107.736 E51.81447
G1 X92.264 Y93.829 E54.22763
G1 X92.264 Y94.872 E54.35565
G1 X105.128 Y107.736 E56.58776
G1 X104.084 Y107.736 E56.71578
G1 X92.264 Y95.916 E58.76684
G1 X92.264 Y96.959 E58.89486
G1 X103.041 Y107.736 E60.76487
G1 X101.997 Y107.736 E60.89289
G1 X92.264 Y98.003 E62.58185
G1 X92.264 Y99.046 E62.70987
G1 X100.954 Y107.736 E64.21778
G1 X99.911 Y107.736 E64.34580
G1 X92.264 Y100.089 E65.67266
G1 X92.264 Y101.133 E65.80068
G1 X98.867 Y107.736 E66.94649
G1 X97.824 Y107.736 E67.07451
G1 X92.264 Y102.176 E68.03927
G1 X92.264 Y103.220 E68.16730
G1 X96.780 Y107.736 E68.95101
G1 X95.737 Y107.736 E69.07903
G1 X92.264 Y104.263 E69.68169
G1 X92.264 Y105.306 E69.80971
G1 X94.694 Y107.736 E70.23133
G1 X93.650 Y107.736 E70.35935
G1 X92.264 Y106.350 E70.59991
G1 X92.264 Y107.393 E70.72793
G1 X92.607 Y107.736 E70.78744
G1 Z0.700 F7800.000
G1 X109.004 Y109.004 F7800.000
G1 X90.996 Y109.004 E71.72826 F3600.000
G1 X90.996 Y90.996 E72.66907
G1 X109.004 Y90.996 E73.60988
G1 X109.004 Y108.944 E74.54756
G1 X109.423 Y109.423 F7800.000
G1 X90.577 Y109.423 E75.53214 F3600.000
G1 X90.577 Y90.577 E76.51672
G1 X109.423 Y90.577 E77.50130
G1 X109.423 Y109.363 E78.48275
G1 X109.800 Y109.800 F7800.000
G1 X90.200 Y109.800 E79.30321 F1800.000
G1 X90.200 Y90.200 E80.12367
G1 X109.800 Y90.200 E80.94413
G1 X109.800 Y109.740 E81.76208
G1 X109.454 Y109.600 F7800.000
G1 X108.539 Y108.757 F7800.000
G1 X108.757 Y108.539 E81.77828 F1200.000
G1 X108.757 Y107.943 E81.80965
G1 X107.943 Y108.757 E81.87021
G1 X107.346 Y108.757 E81.90158
G1 X108.757 Y107.346 E82.00650
G1 X108.757 Y106.750 E82.03787
G1 X106.750 Y108.757 E82.18716
G1 X106.153 Y108.757 E82.21853
G1 X108.757 Y106.153 E82.41218
G1 X108.757 Y105.557 E82.44355
G1 X105.557 Y108.757 E82.68157
G1 X104.961 Y108.757 E82.71294
G1 X108.757 Y104.961 E82.99532
G1 X108.757 Y104.364 E83.02669
G1 X104.364 Y108.757 E83.35344
G1 X103.768 Y108.757 E83.38481
G1 X108.757 Y103.768 E83.75592
G1 X108.757 Y103.171 E83.78729
G1 X103.171 Y108.757 E84.20277
G1 X102.575 Y108.757 E84.23414
G1 X108.757 Y102.575 E84.69397
G1 X108.757 Y101.979 E84.72535
G1 X101.979 Y108.757 E85.22955
G1 X101.382 Y108.757 E85.26092
G1 X108.757 Y101.382 E85.80949
G1 X108.757 Y100.786 E85.84086
G1 X100.786 Y108.757 E86.43379
G1 X100.189 Y108.757 E86.46516
G1 X108.757 Y100.189 E87.10246
G1 X108.757 Y99.593 E87.13383
G1 X99.593 Y108.757 E87.81549
G1 X98.997 Y108.757 E87.84686
G1 X108.757 Y98.997 E88.57289
G1 X108.757 Y98.400 E88.60426
G1 X98.400 Y108.757 E89.37465
G1 X97.804 Y108.757 E89.40602
G1 X108.757 Y97.804 E90.22077
G1 X108.757 Y97.207 E90.25214
G1 X97.207 Y108.757 E91.11126
G1 X96.611 Y108.757 E91.14263
G1 X108.757 Y96.611 E92.04611
G1 X108.757 Y96.015 E92.07748
G1 X96.015 Y108.757 E93.02533
G1 X95.418 Y108.757 E93.05670
G1 X108.757 Y95.418 E94.04891
G1 X108.757 Y94.822 E94.08029
G1 X94.822 Y108.757 E95.11686
G1 X94.225 Y108.757 E95.14823
G1 X108.757 Y94.225 E96.22917
G1 X108.757 Y93.629 E96.26054
G1 X93.629 Y108.757 E97.38585
G1 X93.032 Y108.757 E97.41722
G1 X108.757 Y93.033 E98.58689
G1 X108.757 Y92.436 E98.61826
G1 X92.436 Y108.757 E99.83229
G1 X91.840 Y108.757 E99.86366
G1 X108.757 Y91.840 E101.12206
G1 X108.737 Y91.263 E101.15240
G1 X91.263 Y108.737 E102.45219
G1 X91.243 Y108.160 E102.48252
G1 X108.160 Y91.243 E103.74092
G1 X107.564 Y91.243 E103.77229
G1 X91.243 Y107.564 E104.98632
G1 X91.243 Y106.967 E105.01769
G1 X106.967 Y91.243 E106.18736
G1 X106.371 Y91.243 E106.21873
G1 X91.243 Y106.371 E107.34404
G1 X91.243 Y105.775 E107.37541
G1 X105.775 Y91.243 E108.45635
G1 X105.178 Y91.243 E108.48772
G1 X91.243 Y105.178 E109.52429
G1 X91.243 Y104.582 E109.55566
G1 X104.582 Y91.243 E110.54788
G1 X103.985 Y91.243 E110.57925
G1 X91.243 Y103.985 E111.52709
G1 X91.243 Y103.389 E111.55846
G1 X103.389 Y91.243 E112.46195
G1 X102.793 Y91.243 E112.49332
G1 X91.243 Y102.793 E113.35243
G1 X91.243 Y102.196 E113.38380
G1 X102.196 Y91.243 E114.19856
G1 X101.600 Y91.243 E114.22993
G1 X91.243 Y101.600 E115.00032
G1 X91.243 Y101.003 E115.03169
G1 X101.003 Y91.243 E115.75771
G1 X100.407 Y91.243 E115.78908
G1 X91.243 Y100.407 E116.47074
G1 X91.243 Y99.811 E116.50211
G1 X99.811 Y91.243 E117.13941
G1 X99.214 Y91.243 E117.17078
G1 X91.243 Y99.214 E117.76371
G1 X91.243 Y98.618 E117.79508
G1 X98.618 Y91.243 E118.34365
G1 X98.021 Y91.243 E118.37502
G1 X91.243 Y98.021 E118.87922
G1 X91.243 Y97.425 E118.91059
G1 X97.425 Y91.243 E119.37043
G1 X96.829 Y91.243 E119.40180
G1 X91.243 Y96.829 E119.81728
G1 X91.243 Y96.232 E119.84865
G1 X96.232 Y91.243 E120.21976
G1 X95.636 Y91.243 E120.25113
G1 X91.243 Y95.636 E120.57787
G1 X91.243 Y95.039 E120.60924
G1 X95.039 Y91.243 E120.89163
G1 X94.443 Y91.243 E120.92300
G1 X91.243 Y94.443 E121.16101
G1 X91.243 Y93.847 E121.19238
G1 X93.847 Y91.243 E121.38604
G1 X93.250 Y91.243 E121.41741
G1 X91.243 Y93.250 E121.56669
G1 X91.243 Y92.654 E121.59806
G1 X92.654 Y91.243 E121.70299
G1 X92.057 Y91.243 E121.73436
G1 X91.243 Y92.057 E121.79492
G1 X91.243 Y91.461 E121.82629
G1 X91.461 Y91.243 E121.84248
G1 Z1.000 F7800.000
G1 X109.004 Y109.004 F7800.000
G1 X90.996 Y109.004 E122.78329 F3600.000
G1 X90.996 Y90.996 E123.72411
G1 X109.004 Y90.996 E124.66492
G1 X109.004 Y108.944 E125.60260
G1 X109.423 Y109.423 F7800.000
G1 X90.577 Y109.423 E126.58718 F3600.000
G1 X90.577 Y90.577 E127.57176
G1 X109.423 Y90.577 E128.55634
G1 X109.423 Y109.363 E129.53779
G1 X109.800 Y109.800 F7800.000
G1 X90.200 Y109.800 E130.35825 F1800.000
G1 X90.200 Y90.200 E131.17871
G1 X109.800 Y90.200 E131.99917
G1 X109.800 Y109.740 E132.81712
G1 X109.454 Y109.600 F7800.000
G1 X108.757 Y91.461 F7800.000
G1 X108.539 Y91.243 E132.83331 F1200.000
G1 X107.943 Y91.243 E132.86469
G1 X108.757 Y92.057 E132.92524
G1 X108.757 Y92.654 E132.95662
G1 X107.346 Y91.243 E133.06154
G1 X106.750 Y91.243 E133.09291
G1 X108.757 Y93.250 E133.24220
G1 X108.757 Y93.847 E133.27357
G1 X106.153 Y91.243 E133.46722
G1 X105.557 Y91.243 E133.49859
G1 X108.757 Y94.443 E133.73661
G1 X108.757 Y95.039 E133.76798
G1 X104.961 Y91.243 E134.05036
G1 X104.364 Y91.243 E134.08173
G1 X108.757 Y95.636 E134.40848
G1 X108.757 Y96.232 E134.43985
G1 X103.768 Y91.243 E134.81096
G1 X103.171 Y91.243 E134.84233
G1 X108.757 Y96.829 E135.25780
G1 X108.757 Y97.425 E135.28917
G1 X102.575 Y91.243 E135.74901
G1 X101.979 Y91.243 E135.78038
G1 X108.757 Y98.021 E136.28459
G1 X108.757 Y98.618 E136.31596
G1 X101.382 Y91.243 E136.86452
G1 X100.786 Y91.243 E136.89589
G1 X108.757 Y99.214 E137.48883
G1 X108.757 Y99.811 E137.52020
G1 X100.189 Y91.243 E138.15749
G1 X99.593 Y91.243 E138.18886
G1 X108.757 Y100.407 E138.87053
G1 X108.757 Y101.003 E138.90190
G1 X98.997 Y91.243 E139.62792
G1 X98.400 Y91.243 E139.65929
G1 X108.757 Y101.600 E140.42968
G1 X108.757 Y102.196 E140.46105
G1 X97.804 Y91.243 E141.27581
G1 X97.207 Y91.243 E141.30718
G1 X108.757 Y102.793 E142.16630
G1 X108.757 Y103.389 E142.19767
G1 X96.611 Y91.243 E143.10115
G1 X96.015 Y91.243 E143.13252
G1 X108.757 Y103.985 E144.08037
G1 X108.757 Y104.582 E144.11174
G1 X95.418 Y91.243 E145.10395
G1 X94.822 Y91.243 E145.13532
G1 X108.757 Y105.178 E146.17190
G1 X108.757 Y105.775 E146.20327
G1 X94.225 Y91.243 E147.28421
G1 X93.629 Y91.243 E147.31558
G1 X108.757 Y106.371 E148.44088
G1 X108.757 Y106.967 E148.47225
G1 X93.033 Y91.243 E149.64192
G1 X92.436 Y91.243 E149.67329
G1 X108.757 Y107.564 E150.88733
G1 X108.757 Y108.160 E150.91870
G1 X91.840 Y91.243 E152.17709
G1 X91.263 Y91.263 E152.20743
G1 X108.737 Y108.737 E153.50722
G1 X108.160 Y108.757 E153.53756
G1 X91.243 Y91.840 E154.79595
G1 X91.243 Y92.436 E154.82732
G1 X107.564 Y108.757 E156.04136
G1 X106.967 Y108.757 E156.07273
G1 X91.243 Y93.033 E157.24240
G1 X91.243 Y93.629 E157.27377
G1 X106.371 Y108.757 E158.39907
G1 X105.775 Y108.757 E158.43044
G1 X91.243 Y94.225 E159.51138
G1 X91.243 Y94.822 E159.54275
G1 X105.178 Y108.757 E160.57933
G1 X104.582 Y108.757 E160.61070
G1 X91.243 Y95.418 E161.60291
G1 X91.243 Y96.015 E161.63428
G1 X103.985 Y108.757 E162.58213
G1 X103.389 Y108.757 E162.61350
G1 X91.243 Y96.611 E163.51698
G1 X91.243 Y97.207 E163.54835
G1 X102.793 Y108.757 E164.40747
G1 X102.196 Y108.757 E164.43884
G1 X91.243 Y97.804 E165.25359
G1 X91.243 Y98.400 E165.28496
G1 X101.600 Y108.757 E166.05535
G1 X101.003 Y108.757 E166.08672
G1 X91.243 Y98.997 E166.81275
G1 X91.243 Y99.593 E166.84412
G1 X100.407 Y108.757 E167.52578
G1 X99.811 Y108.757 E167.55715
G1 X91.243 Y100.189 E168.19445
G1 X91.243 Y100.786 E168.22582
G1 X99.214 Y108.757 E168.81875
G1 X98.618 Y108.757 E168.85012
G1 X91.243 Y101.382 E169.39869
G1 X91.243 Y101.979 E169.43006
G1 X98.021 Y108.757 E169.93426
G1 X97.425 Y108.757 E169.96563
G1 X91.243 Y102.575 E170.42547
G1 X91.243 Y103.171 E170.45684
G1 X96.829 Y108.757 E170.87231
G1 X96.232 Y108.757 E170.90369
G1 X91.243 Y103.768 E171.27480
G1 X91.243 Y104.364 E171.30617
G1 X95.636 Y108.757 E171.63291
G1 X95.039 Y108.757 E171.66428
G1 X91.243 Y104.961 E171.94666
G1 X91.243 Y105.557 E171.97803
G1 X94.443 Y108.757 E172.21605
G1 X93.847 Y108.757 E172.24742
G1 X91.243 Y106.153 E172.44107
G1 X91.243 Y106.750 E172.47244
G1 X93.250 Y108.757 E172.62173
G1 X92.654 Y108.757 E172.65310
G1 X91.243 Y107.346 E172.75803
G1 X91.243 Y107.943 E172.78940
G1 X92.057 Y108.757 E172.84995
G1 X91.461 Y108.757 E172.88133
G1 X91.243 Y108.539 E172.89752
M106 S249.9
G1 Z1.300 F7800.000
G1 X109.004 Y109.004 F7800.000
G1 X90.996 Y109.004 E173.83833 F3600.000
G1 X90.996 Y90.996 E174.77914
G1 X109.004 Y90.996 E175.71996
G1 X109.004 Y108.944 E176.65763
G1 X109.423 Y109.423 F7800.000
G1 X90.577 Y109.423 E177.64221 F3600.000
G1 X90.577 Y90.577 E178.62680
G1 X109.423 Y90.577 E179.61138
G1 X109.423 Y109.363 E180.59282
G1 X109.800 Y109.800 F7800.000
G1 X90.200 Y109.800 E181.41328 F1800.000
G1 X90.200 Y90.200 E182.23375
G1 X109.800 Y90.200 E183.05421
G1 X109.800 Y109.740 E183.87216
G1 X109.454 Y109.600 F7800.000
G1 X107.680 Y108.757 F7800.000
G1 X108.757 Y107.680 E183.95172 F4800.000
G1 X108.757 Y101.756 E184.26121
G1 X101.756 Y108.757 E184.77845
G1 X95.832 Y108.757 E185.08794
G1 X108.757 Y95.832 E186.04287
G1 X107.422 Y91.243 E186.29256
G1 X91.243 Y107.422 E187.48791
G1 X91.243 Y101.498 E187.79740
G1 X101.498 Y91.243 E188.55506
G1 X95.574 Y91.243 E188.86455
G1 X91.243 Y95.574 E189.18453
G1 Z1.600 F7800.000
G1 X109.004 Y109.004 F7800.000
G1 X90.996 Y109.004 E190.12534 F3600.000
G1 X90.996 Y90.996 E191.06616
G1 X109.004 Y90.996 E192.00697
G1 X109.004 Y108.944 E192.94465
G1 X109.423 Y109.423 F7800.000
G1 X90.577 Y109.423 E193.92923 F3600.000
G1 X90.577 Y90.577 E194.91381
G1 X109.423 Y90.577 E195.89839
G1 X109.423 Y109.363 E196.87983
G1 X109.800 Y109.800 F7800.000
G1 X90.200 Y109.800 E197.70030 F1800.000
G1 X90.200 Y90.200 E198.52076
G1 X109.800 Y90.200 E199.34122
G1 X109.800 Y109.740 E200.15917
G1 X109.454 Y109.600 F7800.000
G1 X95.574 Y108.757 F7800.000
G1 X91.243 Y104.426 E200.47915 F4800.000
G1 X91.243 Y98.502 E200.78864
G1 X101.498 Y108.757 E201.54630
G1 X107.422 Y108.757 E201.85579
G1 X91.243 Y92.578 E203.05114
G1 X95.832 Y91.243 E203.30083
G1 X108.757 Y104.168 E204.25576
G1 X108.757 Y98.244 E204.56525
G1 X101.756 Y91.243 E205.08250
G1 X107.680 Y91.243 E205.39199
G1 X108.757 Y92.320 E205.47154
G1 Z1.900 F7800.000
G1 X109.004 Y109.004 F7800.000
G1 X90.996 Y109.004 E206.41236 F3600.000
G1 X90.996 Y90.996 E207.35317
G1 X109.004 Y90.996 E208.29398
G1 X109.004 Y108.944 E209.23166
G1 X109.423 Y109.423 F7800.000
G1 X90.577 Y109.423 E210.21624 F3600.000
G1 X90.577 Y90.577 E211.20082
G1 X109.423 Y90.577 E212.18540
G1 X109.423 Y109.363 E213.16685
G1 X109.800 Y109.800 F7800.000
G1 X90.200 Y109.800 E213.98731 F1800.000
G1 X90.200 Y90.200 E214.80777
G1 X109.800 Y90.200 E215.62823
G1 X109.800 Y109.740 E216.44618
G1 X109.454 Y109.600 F7800.000
G1 X107.680 Y108.757 F7800.000
G1 X108.757 Y107.680 E216.52574 F4800.000
G1 X108.757 Y101.756 E216.83523
G1 X101.756 Y108.757 E217.35248
G1 X95.832 Y108.757 E217.66197
G1 X108.757 Y95.832 E218.61690
G1 X107.422 Y91.243 E218.86658
G1 X91.243 Y107.422 E220.06193
G1 X91.243 Y101.498 E220.37142
G1 X101.498 Y91.243 E221.12909
G1 X95.574 Y91.243 E221.43858
G1 X91.243 Y95.574 E221.75856
G1 Z2.200 F7800.000
G1 X109.004 Y109.004 F7800.000
G1 X90.996 Y109.004 E222.69937 F3600.000
G1 X90.996 Y90.996 E223.64018
G1 X109.004 Y90.996 E224.58099
G1 X109.004 Y108.944 E225.51867
G1 X109.423 Y109.423 F7800.000
G1 X90.577 Y109.423 E226.50325 F3600.000
G1 X90.577 Y90.577 E227.48783
G1 X109.423 Y90.577 E228.47241
G1 X109.423 Y109.363 E229.45386
G1 X109.800 Y109.800 F7800.000
G1 X90.200 Y109.800 E230.27432 F1800.000
G1 X90.200 Y90.200 E231.09478
G1 X109.800 Y90.200 E231.91524
G1 X109.800 Y109.740 E232.73319
G1 X109.454 Y109.600 F7800.000
G1 X95.574 Y108.757 F7800.000
